X:36
T:Growling Old Man & Grumbling Old Woman
S:Bernie Waugh
R:Reel
M:4/4
L:1/8
K:A minor
|:A,B,|\
"Am"CA,[A,E]A, CA,[A,E]A,|"G"B,G,[G,D]G, B,G,[G,D]G,|\
"Am"CA,[A,E]A, CA,[A,E]A,|"G"B,A,G,B, "Am"A,2A,B,|
"Am"CA,[A,E]A, CA,[A,E]A,|"G"B,G,[G,D]G, B,G,[G,D]G,|\
"F"A,G,A,B, CDE^F|"G"GEDB, "Am"A,2:|
|:^cd|\
"A"e^fed ^cdef|"G"g^fed BG3|"F#m"e^fed "G"^cAcd|"A"eaag a2e^f|
"C"g^fed "A"^cdef|"C"g^fed "Em"BG3|"F"c2 (3BcB AGED|"G"GEDB,"Am"A,2:|

